!!!COM: Bach, Johann Sebastian
!!!OTL: 124. Auf, auf, mein Herz, und du mein ganzer Sinn
!!!ONM: No. 124
!!!OCL: Erk
!!!SCA: BWV 268
!!!YOE: Riemenschneider, Albert
!!!OPR: 371 Harmonized Chorales and 69 Chorale Melodies with Figured Bass
!!!OPT: Bach Chorale Harmonizations
**harm	**root	**kern	**kern	**kern	**kern
!	!	!bass	!tenor	!alto	!sprno
*Iorgan	*Iorgan	*Iorgan	*Iorgan	*Iorgan	*Iorgan
*k[f#c#]	*k[f#c#]	*k[f#c#]	*k[f#c#]	*k[f#c#]	*k[f#c#]
*D:	*D:	*D:	*D:	*D:	*D:
*met(c)	*met(c)	*met(c)	*met(c)	*met(c)	*met(c)
*M4/4	*M4/4	*M4/4	*M4/4	*M4/4	*M4/4
*MM60	*MM60	*MM60	*MM60	*MM60	*MM60
I	4GG	8D	4A	4d	4f#
.	.	8C#	.	.	.
=1	=1	=1	=1	=1	=1
I	8GG	4D	8A	8d	4f#
vib	8EE	.	8B	8B	.
Vb/vi	4BB	4AA#	4c#	8f#	4f#
.	.	.	.	8e	.
vi;	4EE;	4BB;	4B;	4d;	4f#;
iib	4AA	4GG	4B	8e	4b
.	.	.	.	8d	.
=2	=2	=2	=2	=2	=2
V7d	4.DD	4.GG	8E	8c#	4a
.	.	.	8D	8B	.
.	.	.	8E	8c#	4a
viib/ii	8GG#	8FF#	8F#	8d#	.
ii	4AA	8EE	8G	4e	4g
.	.	8DD#	8F#	.	.
ii	4AA	4EE	4E	8B	4g
.	.	.	.	8c#	.
=3	=3	=3	=3	=3	=3
I;	4GG;	4DD;	4A;	4d;	4f#;
I	4GG	4D	4F#	4A	4d
Vb	4DD	8C#	4E	8A	4e
.	.	8BB	.	8B	.
V	4DD	4AA	8A	8c#	4e
.	.	.	8G	8B	.
=4	=4	=4	=4	=4	=4
I	4GG	8D	8F#	4A	4f#
.	.	8C#	8E	.	.
IVb	4CC	4BB	4D	8d	4g
.	.	.	.	8B	.
V	8DD	4AA	8E	8c#	8a
V7	8DD	.	8C#	8e	8g
vi	8EE	8BB	8D	[4d	4f#
Ic	8GG	8AA	8F#	.	.
=5	=5	=5	=5	=5	=5
ii7b	8AA	8GG	8B	8d]	4e
ii	8AA	8EE	8G	16c#	.
.	.	.	.	16B	.
V	4DD	4AA	8E	4c#	4e
.	.	.	16A	.	.
.	.	.	16G	.	.
I;	4GG;	4DD;	4F#;	4A;	4d;
V7d/V	4AA	4D	4G#	4B	4e
=6	=6	=6	=6	=6	=6
!!linebreak: 2
Vb	8DD	8C#	8A	8c#	4e
V7c/V	8AA	8BB	8G#	8d	.
V	8DD	8AA	8A	8c#	4e
Vb/V	8AA	8GG#	8B	8B	.
V;	4DD;	4AA;	4A;	4c#;	4e;
Vb/vi	4BB	4AA#	4F#	[4c#	8f#
.	.	.	.	.	8e
=7	=7	=7	=7	=7	=7
vi	4EE	8BB	4F#	4c#]	4d
.	.	8C#	.	.	.
vib	4EE	8D	4F#	[4B	4d
.	.	8BB	.	.	.
Vb	8DD	8GG#	8E	8B]	4e
viio/vi	8DD#	8AA#	8C#	8c#	.
vi	8EE	8BB	4D	8F#	4d
IV	8CC	8GG	.	[8B	.
=8	=8	=8	=8	=8	=8
viio7b	4FF#	4EE	4G	8B]	2c#
.	.	.	.	8A#	.
V7b/V/vi	4FF#	4EE#	4G#	8B	.
.	.	.	.	8G#	.
V/vi;	4BB;	4FF#;	4F#;	4A#;	4c#;
Vb/vi	4BB	4AA#	8F#	4F#	4c#
.	.	.	8E	.	.
=9	=9	=9	=9	=9	=9
vi	8EE	8BB	8D	4F#	4d
V7c/IV	8GG	8AA	8C#	.	.
IV	8CC	8GG	8D	8B	4d
Ib	8GG	8FF#	8F#	8A	.
ii	4AA	8EE	[4G	8B	4e
.	.	8DD	.	16c#	.
.	.	.	.	16d	.
viio	8FF#	8CC#	8G]	8e	4e
V	8DD	8AAA	16A	8c#	.
.	.	.	16G	.	.
=10	=10	=10	=10	=10	=10
I	4GG	8DD	[4F#	8A	4f#
.	.	8D	.	16B	.
.	.	.	.	16c#	.
IV7b	8CC	8BB	8F#]	8d	4g
viiob	8FF#	8E	16E	16c#	.
.	.	.	16D	16B	.
Vb	8DD	8C#	8E	8c#	8a
V7	8DD	8AA	8c#	4e	8g
I	8GG	8D	8A	.	4f#
vi	8EE	8BB	8B	8d	.
=11	=11	=11	=11	=11	=11
ii7b	4AA	8GG	8B	4d	2e
.	.	8EE	8G	.	.
V	4DD	4AA	8E	4c#	.
.	.	.	16A	.	.
.	.	.	16G	.	.
I;	4GG;	4DD;	4F#;	4A;	4d;
==	==	==	==	==	==
*-	*-	*-	*-	*-	*-
!!!CDT: 1685/3//-1750/7/28
!!!OCY: Deutschland
!!!AGN: chorale
!!!AST: Baroque
!!!AIN: vox
!!!YOY: 1941
!!!PPP: New York; London
!!!PPR: G. Schirmer
!!!ENC: David Huron
!!!EED: David Huron
!!!YEN: United States of America
!!!YER: 1992
!!!YEC: Copyright 1992 David Huron
!!!YEM: Rights to all derivative electronic formats reserved.
!!!YER: March 20, 1996
!!!AMT: simple quadruple
!!!EEV: 1.1
!!chor2scor: -l 2 -s 0.6 -o %b.pmx
